X:528
T: "Der Einsiedler"
N: Z1208
O: Europa, Mitteleuropa, Steiermark
R: Liebes - Lied, verlassene Liebe
M: 3/4
L: 1/8
K: C
EF | GeedcE | FDD2
DE | FddcBD | EB,C2
EF | GeedcE | FDD2
DE | FffedB, | C2z2

